X:1
T: Star of Kintra
N:
C:Elvyn Blomfield
S:
A:
O:
R:
M:4/4
K:G
I:speed 230
%W: A
% voice 1 (1 lines, 26 notes)
K:G
M:4/4
L:1/16
D4 |G8 B8 |d6 B2 A4 G4 |E6 F2 G4 A4 |D12 D4 |G8 B8 |d6 B2 A4 G4 |F4 A8 e4 |d4 c4 B4 A4 |
%W:
% voice 1 (1 lines, 26 notes)
G4 B8 G4 |A4 c8 A4 |B6 c2 d4 G4 |e4 g8 e4 |d4 G8 A4 |B4 d8 G4 |A2 B2 c4 B4 A4 |G12 G4 |
%W: B1
% voice 1 (1 lines, 25 notes)
e4 g8 G4 |B4 d8 D4 |F6 G2 A4 c4 |e4 d8 G4 |e4 g8 G4 |B4 d8 D4 |c6 B2 A4 e4 |d12 G4 |
%W: B2
% voice 1 (1 lines, 25 notes)
e4 g8 G4 |B4 d8 D4 |F6 G2 A4 c4 |e4 d8 G4 |e4 g8 G4 |B4 d8 D4 |F2 G2 A4 B4 A4 |G12 ||
